svgs/sharp-light/garage-open.svg

<svg xmlns="http://www.w3.org/2000/svg" viewBox="0 0 640 512"><!--! Font Awesome Pro 6.6.0 by @fontawesome - https://fontawesome.com License - https://fontawesome.com/license (Commercial License) Copyright 2024 Fonticons, Inc. --><path d="M325.9 9.1L320 6.8l-5.9 2.3-304 120L0 133.1 0 144 0 496l0 16 32 0 0-16 0-341.1L320 41.2 608 154.9 608 496l0 16 32 0 0-16 0-352 0-10.9-10.1-4-304-120zM112 192l-16 0 0 16 0 288 0 16 32 0 0-16 0-208 384 0 0 208 0 16 32 0 0-16 0-288 0-16-16 0-416 0zm400 64l-384 0 0-32 384 0 0 32zM212.5 320l-7.8 24L192 344l-16 0 0 16 0 136 0 16 32 0 0-16 0-16 224 0 0 16 0 16 32 0 0-16 0-136 0-16-16 0-12.7 0-7.8-24-33.6 0 7.8 24-163.3 0 7.8-24-33.6 0zM208 448l0-72 224 0 0 72-224 0zm40-16a16 16 0 1 0 0-32 16 16 0 1 0 0 32zm160-16a16 16 0 1 0 -32 0 16 16 0 1 0 32 0z"/></svg>

<svg xmlns="http://www.w3.org/2000/svg" viewBox="0 0 640 512"><!--! Font Awesome Pro 6.4.0 by @fontawesome - https://fontawesome.com License - https://fontawesome.com/license (Commercial License) Copyright 2023 Fonticons, Inc. --><path d="M325.9 9.1L320 6.8l-5.9 2.3-304 120L0 133.1V144 496v16H32V496 154.9L320 41.2 608 154.9V496v16h32V496 144 133.1l-10.1-4-304-120zM112 192H96v16V496v16h32V496 288H512V496v16h32V496 208 192H528 112zm400 64H128V224H512v32zM212.5 320l-7.8 24H192 176v16V496v16h32V496 480H432v16 16h32V496 360 344H448 435.3l-7.8-24H393.8l7.8 24H238.4l7.8-24H212.5zM208 448V376H432v72H208zm40-16a16 16 0 1 0 0-32 16 16 0 1 0 0 32zm160-16a16 16 0 1 0 -32 0 16 16 0 1 0 32 0z"/></svg>
